public/svgs/engagement/link.svg

<svg width="1em" height="1em" viewBox="0 0 16 16" fill="current" xmlns="http://www.w3.org/2000/svg">
    <g clip-path="url(#clip0_14069_2027)">
        <path fill-rule="evenodd" clip-rule="evenodd"
            d="M14.1243 4.58865L11.5512 2.01559C11.356 1.82033 11.0394 1.82033 10.8441 2.01559L8.22994 4.62979C8.05202 4.80771 8.03622 5.08638 8.18256 5.28219L7.11914 6.34561C6.38861 5.56133 6.40532 4.33309 7.16928 3.56913L9.78348 0.954927C10.5645 0.173878 11.8309 0.173878 12.6119 0.954927L15.185 3.52799C15.966 4.30904 15.966 5.57537 15.185 6.35642L12.5708 8.97062C11.7897 9.75167 10.5234 9.75167 9.74234 8.97062L9.59311 8.82138L10.6538 7.76073L10.803 7.90996C10.9983 8.10522 11.3148 8.10522 11.5101 7.90996L14.1243 5.29576C14.3196 5.1005 14.3196 4.78391 14.1243 4.58865ZM8.88601 5.99296L8.88605 5.993L7.82539 7.05366L7.82535 7.05362L8.88601 5.99296ZM6.58213 6.88262C5.79887 6.13301 4.55616 6.14343 3.78568 6.91391L1.17148 9.52811C0.390431 10.3092 0.390432 11.5755 1.17148 12.3565L3.74454 14.9296C4.52559 15.7106 5.79192 15.7106 6.57297 14.9296L9.18717 12.3154C9.96822 11.5344 9.96822 10.268 9.18717 9.48697L9.05735 9.35715L7.99669 10.4178L8.12651 10.5476C8.32177 10.7429 8.32177 11.0595 8.12651 11.2547L5.51231 13.8689C5.31705 14.0642 5.00046 14.0642 4.8052 13.8689L2.23214 11.2959C2.03688 11.1006 2.03688 10.784 2.23214 10.5888L4.84634 7.97457C5.03094 7.78997 5.32398 7.77989 5.52042 7.94433L6.58213 6.88262ZM6.22892 8.65004L7.28958 7.58938L7.28963 7.58943L6.22897 8.65009L6.22892 8.65004Z"
            fill="current" />
        <path fill-rule="evenodd" clip-rule="evenodd"
            d="M12.0001 5.00011L5.00011 12.0001L3.93945 10.9395L10.9395 3.93945L12.0001 5.00011Z"
            fill="current" />
    </g>
    <defs>
        <clipPath id="clip0_14069_2027">
            <rect width="16" height="16" fill="white" />
        </clipPath>
    </defs>
</svg>

<svg xmlns="http://www.w3.org/2000/svg" width="1em" height="1em" fill="current" viewBox="0 0 16 16"><g fill-rule="evenodd" clip-path="url(#a)" clip-rule="evenodd"><path d="m14.124 4.589-2.573-2.573a.5.5 0 0 0-.707 0L8.23 4.63a.5.5 0 0 0-.047.652L7.119 6.346a2 2 0 0 1 .05-2.777L9.783.955a2 2 0 0 1 2.829 0l2.573 2.573a2 2 0 0 1 0 2.828l-2.614 2.615a2 2 0 0 1-2.829 0l-.149-.15 1.06-1.06.15.149a.5.5 0 0 0 .707 0l2.614-2.614a.5.5 0 0 0 0-.707M8.886 5.993l-1.06 1.06zm-2.304.89a2 2 0 0 0-2.796.03L1.17 9.529a2 2 0 0 0 0 2.829l2.574 2.573a2 2 0 0 0 2.828 0l2.614-2.615a2 2 0 0 0 0-2.828l-.13-.13-1.06 1.06.13.13a.5.5 0 0 1 0 .708l-2.615 2.614a.5.5 0 0 1-.707 0l-2.573-2.573a.5.5 0 0 1 0-.707l2.614-2.614a.5.5 0 0 1 .674-.03zM6.23 8.65l1.06-1.06z"/><path d="m12 5-7 7-1.06-1.06 7-7z"/></g><defs><clipPath id="a"><path fill="#fff" d="M0 0h16v16H0z"/></clipPath></defs></svg>
